Numix-GalliumOS/24/status/renamed-hb-icon.svg

<?xml version="1.0" encoding="UTF-8" standalone="no"?>
<svg
   xmlns:dc="http://purl.org/dc/elements/1.1/"
   xmlns:cc="http://creativecommons.org/ns#"
   xmlns:rdf="http://www.w3.org/1999/02/22-rdf-syntax-ns#"
   xmlns:svg="http://www.w3.org/2000/svg"
   xmlns="http://www.w3.org/2000/svg"
   xmlns:sodipodi="http://sodipodi.sourceforge.net/DTD/sodipodi-0.dtd"
   xmlns:inkscape="http://www.inkscape.org/namespaces/inkscape"
   width="24"
   viewBox="0 0 6.7733335 6.7733335"
   height="24"
   id="svg2"
   version="1.1"
   inkscape:version="0.91 r"
   sodipodi:docname="renamed-hb-icon.svg">
  <metadata
     id="metadata24">
    <rdf:RDF>
      <cc:Work
         rdf:about="">
        <dc:format>image/svg+xml</dc:format>
        <dc:type
           rdf:resource="http://purl.org/dc/dcmitype/StillImage" />
        <dc:title />
      </cc:Work>
    </rdf:RDF>
  </metadata>
  <sodipodi:namedview
     pagecolor="#ffffff"
     bordercolor="#666666"
     borderopacity="1"
     objecttolerance="10"
     gridtolerance="10"
     guidetolerance="10"
     inkscape:pageopacity="0"
     inkscape:pageshadow="2"
     inkscape:window-width="1366"
     inkscape:window-height="747"
     id="namedview22"
     showgrid="false"
     inkscape:zoom="9.84"
     inkscape:cx="25.511886"
     inkscape:cy="7.9877874"
     inkscape:window-x="0"
     inkscape:window-y="21"
     inkscape:window-maximized="1"
     inkscape:current-layer="svg2" />
  <defs
     id="defs4" />
  <g
     id="g4138"
     transform="translate(0.28222219,0.28222238)">
    <path
       inkscape:connector-curvature="0"
       id="path18"
       d="M 2.9038221,0.87111402 C 2.4782267,0.90682102 2.0610174,0.97903292 1.8111967,1.0711089 1.3115563,1.2552601 1.2308,1.2669023 1.2699654,1.4484116 1.4433936,1.7197335 1.5321101,2.0265292 1.6908586,2.3060481 1.7378806,2.341917 1.7927187,2.3612229 1.8734408,2.3259201 2.5370145,2.0538943 3.2230259,1.9208516 4.1812002,2.1530991 4.4469891,1.9734734 4.5534034,1.5107369 4.6284283,1.2179871 4.6704388,1.0522666 4.6143962,1.0001042 4.0470535,0.89085292 3.7633816,0.83622592 3.3294184,0.83540692 2.9038221,0.87111392 Z M 1.9039915,1.4545961 c 0.052082,-0.00424 0.097714,0.035711 0.1018462,0.089174 0.00413,0.053463 -0.034791,0.1003038 -0.086871,0.104546 -0.052082,0.00424 -0.097714,-0.035711 -0.1018462,-0.089174 -0.00413,-0.053463 0.034791,-0.1003034 0.086871,-0.1045458 z M 3.9867504,1.2891423 c 0.052083,-0.00424 0.097488,0.035729 0.1016206,0.089193 0.00413,0.053463 -0.034563,0.1002852 -0.086645,0.1045279 -0.052082,0.00424 -0.097713,-0.035711 -0.1018463,-0.089174 -0.00413,-0.053463 0.034791,-0.100304 0.086871,-0.1045461 z"
       style="fill:#ececec;fill-opacity:1" />
    <path
       inkscape:connector-curvature="0"
       id="path20"
       d="m 3.1044442,1.4111111 c -1.0910696,0 -1.9755553,0.8844859 -1.9755553,1.9755557 0,1.0910691 0.8844857,1.9755555 1.9755553,1.9755555 1.0910692,0 1.9755559,-0.8844864 1.9755559,-1.9755555 0,-1.0910698 -0.8844867,-1.9755557 -1.9755559,-1.9755557 z m 0,1.3581946 c 0.3402275,0 0.617361,0.2771333 0.617361,0.6173611 0,0.3402277 -0.2771335,0.6173613 -0.617361,0.6173613 -0.3402279,0 -0.617361,-0.2771336 -0.617361,-0.6173613 0,-0.3402278 0.2771331,-0.6173611 0.617361,-0.6173611 z m 0,0.1234722 c -0.2734985,0 -0.4938887,0.2203855 -0.4938887,0.4938889 0,0.2735034 0.2203902,0.4938887 0.4938887,0.4938887 0.2734982,0 0.4938887,-0.2203853 0.4938887,-0.4938887 0,-0.2735034 -0.2203906,-0.4938889 -0.4938887,-0.4938889 z m 0,0.1852083 c 0.1704793,0 0.3086802,0.1382011 0.3086802,0.3086806 0,0.1704797 -0.1382009,0.3086805 -0.3086802,0.3086805 -0.1704793,0 -0.3086807,-0.1382008 -0.3086807,-0.3086805 0,-0.1704795 0.1382014,-0.3086806 0.3086807,-0.3086806 z"
       style="fill:#ececec;fill-opacity:1" />
  </g>
</svg>

<svg xmlns="http://www.w3.org/2000/svg" width="24" viewBox="0 0 6.7733335 6.7733335" height="24">
 <g transform="translate(0.28222219,0.28222238)">
  <path d="m 2.904 0.871 c -0.426 0.036 -0.843 0.108 -1.093 0.2 -0.5 0.184 -0.58 0.196 -0.541 0.377 0.173 0.271 0.262 0.578 0.421 0.858 0.047 0.036 0.102 0.055 0.183 0.02 0.664 -0.272 1.35 -0.405 2.308 -0.173 0.266 -0.18 0.372 -0.642 0.447 -0.935 0.042 -0.166 -0.014 -0.218 -0.581 -0.327 -0.284 -0.055 -0.718 -0.055 -1.143 -0.02 m -1 0.583 c 0.052 -0.004 0.098 0.036 0.102 0.089 0.004 0.053 -0.035 0.1 -0.087 0.105 -0.052 0.004 -0.098 -0.036 -0.102 -0.089 -0.004 -0.053 0.035 -0.1 0.087 -0.105 z m 2.083 -0.165 c 0.052 -0.004 0.097 0.036 0.102 0.089 0.004 0.053 -0.035 0.1 -0.087 0.105 -0.052 0.004 -0.098 -0.036 -0.102 -0.089 -0.004 -0.053 0.035 -0.1 0.087 -0.105 z" style="fill:#ececec;fill-opacity:1"/>
  <path d="m 3.104 1.411 c -1.091 0 -1.976 0.884 -1.976 1.976 0 1.091 0.884 1.976 1.976 1.976 1.091 0 1.976 -0.884 1.976 -1.976 0 -1.091 -0.884 -1.976 -1.976 -1.976 z m 0 1.358 c 0.34 0 0.617 0.277 0.617 0.617 0 0.34 -0.277 0.617 -0.617 0.617 -0.34 0 -0.617 -0.277 -0.617 -0.617 0 -0.34 0.277 -0.617 0.617 -0.617 z m 0 0.123 c -0.273 0 -0.494 0.22 -0.494 0.494 0 0.274 0.22 0.494 0.494 0.494 0.273 0 0.494 -0.22 0.494 -0.494 0 -0.274 -0.22 -0.494 -0.494 -0.494 z m 0 0.185 c 0.17 0 0.309 0.138 0.309 0.309 0 0.17 -0.138 0.309 -0.309 0.309 -0.17 0 -0.309 -0.138 -0.309 -0.309 0 -0.17 0.138 -0.309 0.309 -0.309 z" style="fill:#ececec;fill-opacity:1"/>
 </g>
</svg>
